X:154
T:Home by Barna
M:6/8
K:E Aeolian
%%stretchlast
%%partsbox
P:A
"@-77.5,50[Intro:1A]"E|"Em"E2 E G2 A|B2 e d2 B|"D"A2 B d2 F|F2 E F3|!
w:In Scar-late-glen there lived a lass and Eve-ry mor-ning af-ter mass
"Em"E2 E G2 A|B2 e d2 B|"D"A2 F d2 F|"Em"E3 E2 !
w:She would go and have a glass and Then go home by Bar-na
P:B
B|B2 e e2 f|e2 d B2 ^c|"D"d2  e d2 B|A2 B d2 B|!
w:we Won't go home a-long the road for fear that we might tax the rogue. we
"Em"B2 e e2 f|e2 d B2 z|"D"A2 F d2 F|"Em"E3 E3|
w:Won't go home a-long the road. We'll go home by Bar-na
W:
W:We won't go home across the fields
W:The big thorn needles stick in our heels
W:We won't go home across the fields
W:We'll go home by Barna
W:We won't go home the milk boreen
W:The light is bright we might be seen
W:We won't go home the milk boreen
W:We'll go home by Barna
W:
W:
W:We won't go home along the bay
W:The tinker's camp is on the way
W:We won't go home along the bay
W:We'll go home by Barna
W:We won't go home along the main
W:The swoogh is sure to rise again
W:We won't go home along the main
W:We'll go home by Barna
W:
W:
W:We won't go home along the shore
W:For fear we'll hear the banshee roar
W:We won't go home along the shore
W:We'll go home by Barna
W:We won't go home along the strand
W:We might disturb the fairy band
W:We won't go home along the strand
W:We'll go home by Barna

